projects/icons/src/tuiIconMastercard.svg

<svg xmlns="http://www.w3.org/2000/svg" id="tuiIconMastercard" viewBox="0 0 32 32">
    <g transform="translate(3, 8)">
        <path d="M12.8333333,14.9858645 C15.0443072,13.5181166 16.5,11.0185601 16.5,8.18181818 C16.5,5.34507627 15.0443072,2.84551975 12.8333333,1.37777185 C14.1442565,0.50751969 15.7206989,0 17.4166667,0 C21.9730159,0 25.6666667,3.66312477 25.6666667,8.18181818 C25.6666667,12.7005116 21.9730159,16.3636364 17.4166667,16.3636364 C15.7206989,16.3636364 14.1442565,15.8561167 12.8333333,14.9858645 Z" fill="#FBB735"></path>
        <path d="M12.8333333,1.37777185 C10.6223595,2.84551975 9.16666667,5.34507627 9.16666667,8.18181818 C9.16666667,11.0185601 10.6223595,13.5181166 12.8333333,14.9858645 C11.5224101,15.8561167 9.94596776,16.3636364 8.25,16.3636364 C3.69365081,16.3636364 0,12.7005116 0,8.18181818 C0,3.66312477 3.69365081,0 8.25,0 C9.94596776,0 11.5224101,0.50751969 12.8333333,1.37777185 Z" fill="#F03727"></path>
        <path d="M12.8333333,1.37777185 C15.0443072,2.84551975 16.5,5.34507627 16.5,8.18181818 C16.5,11.0185601 15.0443072,13.5181166 12.8333333,14.9858645 C10.6223595,13.5181166 9.16666667,11.0185601 9.16666667,8.18181818 C9.16666667,5.34507627 10.6223595,2.84551975 12.8333333,1.37777185 Z" fill="#F6772D"></path>
    </g>
</svg>

<svg xmlns="http://www.w3.org/2000/svg" id="tuiIconMastercard" viewBox="0 0 32 32"><path fill="#FBB735" d="M12.833 14.986c2.211-1.468 3.667-3.967 3.667-6.804s-1.456-5.336-3.667-6.804A8.26 8.26 0 0117.417 0c4.556 0 8.25 3.663 8.25 8.182s-3.694 8.182-8.25 8.182a8.26 8.26 0 01-4.584-1.378z" transform="translate(3 8)"/><path fill="#F03727" d="M12.833 1.378c-2.21 1.468-3.666 3.967-3.666 6.804s1.455 5.336 3.666 6.804a8.26 8.26 0 01-4.583 1.378C3.694 16.364 0 12.7 0 8.182S3.694 0 8.25 0a8.26 8.26 0 014.583 1.378z" transform="translate(3 8)"/><path fill="#F6772D" d="M12.833 1.378C15.044 2.846 16.5 5.345 16.5 8.182s-1.456 5.336-3.667 6.804c-2.21-1.468-3.666-3.967-3.666-6.804s1.455-5.336 3.666-6.804z" transform="translate(3 8)"/></svg>
